X: 09101
T: SAM & JOE
C: Bob McQuillen 17 Sept 92
B: Bob's Note Book 9 p.101
R: reel
Z: 2017 John Chambers <jc:trillian.mit.edu>
L: 1/8
M: C
K: A
|:\
e2e2 fecA | cecA F4 | e2e2 fecA | c2 e6 |
d2d2 cAce | fefa e2af | e2ce fecA | B2 A6 :|
|:\
a2a2 bafe | fafe c2ef | a2a2 bafe | f2a2 bafe |
a2ba feaf | ecBA F2EF | A2c2 BAFE | F2 A6 :|
%%begintext align
%% Joe and Sam Herrmann have never had
%% a time all their own (at least, not in these little bookies.) They are two-thirds of
%% a wonderful musical group called "Critten Hollow" (The other third is Joe Fallon)
%% and this just seemed like the right time for their tune to show up here. I hope
%% they think so, too. If you see them before I do, tell 'em Bob said, "Let's go jam
%% with Joe and Sam!" (Jam and Go with Sam and Joe!?) Oh well - Best wishes
%% anyway and always to you guys. Can't wait to see you again.
%%endtext

%%sep 1 1 500

%%sep 1 1 500

